build/images/icons/bullseye.svg

<svg xmlns="http://www.w3.org/2000/svg" width="32" height="32"><path d="M16 31.998c-8.836 0-16-7.163-16-16.001C0 7.162 7.164-.002 16-.002c8.837 0 16 7.164 16 15.999 0 8.838-7.163 16.001-16 16.001zm0-29c-7.18 0-13 5.82-13 12.999 0 7.18 5.82 13.001 13 13.001s13-5.821 13-13.001c0-7.179-5.82-12.999-13-12.999zm0 22.499a9.5 9.5 0 110-18.999 9.5 9.5 0 110 18.999zm0-15.999a6.502 6.502 0 000 13.001 6.502 6.502 0 000-13.001zm0 9.501a3 3 0 11.002-6.002A3 3 0 0116 19z"/></svg>

<svg 
 xmlns="http://www.w3.org/2000/svg"
 xmlns:xlink="http://www.w3.org/1999/xlink"
 width="32px" height="32px">
<path 
 d="M16.000,31.998 C7.164,31.998 -0.000,24.835 -0.000,15.997 C-0.000,7.162 7.164,-0.002 16.000,-0.002 C24.837,-0.002 32.000,7.162 32.000,15.997 C32.000,24.835 24.837,31.998 16.000,31.998 ZM16.000,2.998 C8.820,2.998 3.000,8.818 3.000,15.997 C3.000,23.177 8.820,28.998 16.000,28.998 C23.180,28.998 29.000,23.177 29.000,15.997 C29.000,8.818 23.180,2.998 16.000,2.998 ZM16.000,25.497 C10.753,25.497 6.500,21.244 6.500,15.997 C6.500,10.752 10.753,6.498 16.000,6.498 C21.247,6.498 25.500,10.752 25.500,15.997 C25.500,21.244 21.247,25.497 16.000,25.497 ZM16.000,9.498 C12.410,9.498 9.500,12.408 9.500,15.997 C9.500,19.587 12.410,22.499 16.000,22.499 C19.590,22.499 22.500,19.587 22.500,15.997 C22.500,12.408 19.590,9.498 16.000,9.498 ZM16.000,18.999 C14.343,18.999 13.000,17.655 13.000,15.997 C13.000,14.341 14.343,12.999 16.000,12.999 C17.657,12.999 19.000,14.341 19.000,15.997 C19.000,17.655 17.657,18.999 16.000,18.999 Z"/>
</svg>
